X:1
T:Tide Coming In. WHL.[195], The
T:Tide Coming In. WHL.[195], The
T:Sometimes attributed to James Hill
C:Sometimes attributed to James Hill
L:1/8
Q:1/2=75
M:2/2
K:Gmin
V:1 treble 
V:1
 dc | BAG^F GABc | d2 G2 G2 ba | fedc BcdB | (3cdB (3ABG F2 dc | BAGF GABc | dg^fa g2 g=f | %7
 edcB cdAc | B2 G2 G2 :: ga | bgdB gdBG | DGBd gabg | afcA fcAF | CFAc fcAc | BAG^F GABc | %15
 dg^fa g2 g=f | edcB cdAc | B2 G2 G2 :| %18

